src/status/16/indicator-stickynotes-mono.svg

<svg viewBox="0 0 16 16" xmlns="http://www.w3.org/2000/svg">
 <path d="m0 0v16h16v-16zm2 2h2v2h-2zm4 0h8v2h-8zm-4 5h2v2h-2zm4 0h8v2h-8zm-4 5h2v2h-2zm4 0h8v2h-8z" fill="#2e3440"/>
</svg>

<svg xmlns="http://www.w3.org/2000/svg" viewBox="0 0 16 16">
 <path style="fill:#2e3440" d="M 0,0 V 16 H 16 V 0 Z M 2,2 H 4 V 4 H 2 Z m 4,0 h 8 V 4 H 6 Z M 2,7 H 4 V 9 H 2 Z m 4,0 h 8 V 9 H 6 Z m -4,5 h 2 v 2 H 2 Z m 4,0 h 8 v 2 H 6 Z"/>
</svg>
